X: 1
T:Tom Speir's Farewell to the Royal Bank
M:C|
L:1/8
Q:80
C:Michael Grey
S:March
K:HP
|: e|
{g}A{GdGe}A{gBd}B3/2A/2|
{g}G3/4A/4{g}B/4{d}G3/4{gf}g{a}f3/4g/4|
{ag}a{ef}e{g}e3/4G/4{g}B/4d3/4|  !
{a}g3/4e/4{gde}d3/4G/4{gBd}B{gef}e{g}A{GdGe}A{gBd}B3/2A/2|
{g}G3/4A/4{g}B/4{d}G3/4{gf}g{a}f3/4g/4|
{ag}a{ef}e{g}e3/4G/4{g}B/4d3/4|  !
{gBd}B3/2{e}A/2{GAG}A:| |:
{gf}g|
{ag}a{ef}e{g}e3/4G/4{g}B/4d3/4|  !
{ag}a3/4e/4{a}g/4a3/4{ef}e{A}e3/4f/4|
{a}g3/4G/4{g}B/4d3/4{gef}e3/4d/4{g}B/4{d}G3/4|
{a}g3/4e/4{gde}d3/4G/4{gBd}B|1 {gf}g|2 {gef}e|1 {ag}a{ef}e{g}e3/4G/4{g}B
/4d3/4|  !
{ag}a3/4e/4{a}g/4a3/4{ef}e{A}e3/4f/4|
g/4{a}e3/4{ag}a{ef}e3/4G/4{g}B/4d3/4|
{gBd}B3/2{e}A/2{GAG}A:| |:  !
e|
{gAGAG}A{g}B/4e3/4{g}A{GdG}B|
{g}G3/4A/4{g}B/4{d}G3/4{gf}g{a}f3/4g/4|
{ag}a3/4e/4{a}g/4a3/4{ef}e3/4G/4{g}B/4d3/4|  !
{a}g3/4e/4{gde}d3/4G/4{gBd}B{gef}e{gAGAG}A{g}B/4e3/4{g}A{GdG}B|
{g}G3/4A/4{g}B/4{d}G3/4{gf}g{a}f3/4g/4|
{ag}a{ef}e{g}e3/4G/4{g}B/4d3/4|  !
{gBd}B3/2{e}A/2{GAG}A:| |:
{gf}g|
a3/4e/4{A}e3/4a/4g/4{a}e3/4{ag}a|  !
{f}g3/4e/4{a}g/4a3/4{f}g3/4e/4{gde}d3/4B/4|
g/4{a}e3/4{ag}a{ef}e3/4d/4{g}B/4{d}G3/4|
{a}g3/4e/4{gde}d3/4G/4{gBd}B|1 {gf}g|2 {gef}e|1 a3/4e/4{A}e3/4a/4g/4{a}e
3/4{ag}a|  !
{f}g3/4e/4{a}g/4a3/4{f}g3/4e/4{gde}d3/4B/4|
g/4{a}e3/4{ag}a{ef}e3/4G/4{g}B/4d3/4|
{gBd}B3/2{e}A/2{GAG}A:|  !
